X: 1020
T: Hicaz Mandra
C: Lavtacı Andon
O: Turkey
F: http://compmusic.upf.edu/node/140
N: hicaz--mandra--devrituran--hicaz_mandra--lavtaci_andon
N: makam= hicaz
N: form= mandra
N: usul= devrituran = 7/16
M: 7/16
L: 1/16
K: C _7/8B ^f ^c 
Q: 1/4=432
%%MIDI tuningsystem comma53
A2 A2 A A A  | A2 A2 A A A  | A2 A2 A A A  | \
w:   |   |   | 
A2 A2 A A A  | ^3/4c2 B c B A G  | 
w:   |   | 
A2 B2 ^3/4c d e  | d ^3/4c B c B A G  | \
w:   |   | 
A2 A2 A3  | ^3/4c2 B c B A G  | 
w:   |   | 
A2 B2 ^3/4c d e  | d ^3/4c B c B A G  | \
w:   |   | 
A2 A2 A3  | A2 d ^3/4c B A B  | 
w:   |   | 
^3/4c2 d2 e d e  | A2 d ^3/4c B A G  | \
w:   |   | 
d2 ^3/4c e d2 z  | A2 d ^3/4c B A B  | 
w:   |   | 
^3/4c2 d2 e d e  | A2 d ^3/4c B A G  | \
w:   |   | 
.A2 .A2 A2 z  | d2 d A d2 d  | e2 e d e2 A  | 
w:   |   |   | 
a2 g ^3/4f f e d  | ^3/4f2 e {f}d {e}^3/4c {d}=B {c}A  | \
w:   |   | 
d2 d A d2 d  | e2 e d e2 d  | 
w:   |   | 
a2 g ^3/4f f e d  | .d2 .d2 d3  | a2 a a a a a  | \
w:   |   |   | 
a2 a a a a a  | 
w:   | 
=b2 a g ^3/4f e f  | g ^3/4f g =b a3  | \
w:   |   | 
=b2 a g ^3/4f e f  | g2 ^3/4f e d2 z  | 
w:   |   | 
=b2 a g ^3/4f e f  | g ^3/4f g =b a3  | \
w:   |   | 
=b2 a g ^3/4f e f  | g2 ^3/4f e d2 z  | 
w:   |   | 
.a2 a ^3/4f .g2 e  | =f2 f d e2 ^3/4c  | \
w:   |   | 
=f e d e ^3/4c2 B  | A B ^3/4c d e ^3/4f g  | 
w:   |   | 
.a2 a ^3/4f .g2 e  | =f2 f d e2 ^3/4c  | \
w:   |   | 
=f e d e ^3/4c2 B  | .A2 .A2 A2 A  | \
w:   |   | 
G A B ^3/4c d3  | 
w:   | 
=f e d ^3/4c B A B  | ^3/4c2 d c B A G  | \
w:   |   | 
d2 ^3/4c e d3  | G A B ^3/4c d3  | 
w:   |   | 
=f e d ^3/4c B A B  | .^3/4c2 d c B A G  | \
w:   |   | 
.G2 .G2 G2 z  | .G2 .G2 B A G  | 
w:   |   | 
.G2 .G2 B A G  | .G2 d ^3/4c B A G  | \
w:   |   | 
d2 ^3/4c e d3  | .G2 .G2 B A G  | .G2 .G2 B A G  | 
w:   |   |   | 
G2 d ^3/4c B A G  | .A2 .A2 A3  | .G2 .G2 B A G  | \
w:   |   |   | 
.G2 .G2 B A G  | .G2 d ^3/4c B A G  | 
w:   |   | 
d2 ^3/4c e d3  | .G2 .G2 B A G  | .G2 .G2 B A G  | \
w:   |   |   | 
G2 d ^3/4c B A G  | .A2 .A2 A2 z  | 
w:   |   | 
|


